app/assets/images/status/personal-key.svg

<svg width="100" height="100" viewBox="0 0 100 100" fill="none" xmlns="http://www.w3.org/2000/svg"><g filter="url(#filter0_d_119_1094)"><path d="M50 94C74.3005 94 94 74.3005 94 50C94 25.6995 74.3005 6 50 6C25.6995 6 6 25.6995 6 50C6 74.3005 25.6995 94 50 94Z" fill="white"/></g><path d="M49.9994 89.601C71.8704 89.601 89.6003 71.8711 89.6003 50.0001C89.6003 28.1291 71.8704 10.3992 49.9994 10.3992C28.1284 10.3992 10.3984 28.1291 10.3984 50.0001C10.3984 71.8711 28.1284 89.601 49.9994 89.601Z" fill="#E21C3D"/><path d="M50.0002 85.6408C69.6841 85.6408 85.641 69.6838 85.641 50C85.641 30.3161 69.6841 14.3591 50.0002 14.3591C30.3163 14.3591 14.3594 30.3161 14.3594 50C14.3594 69.6838 30.3163 85.6408 50.0002 85.6408Z" fill="white"/><path d="M49.9992 68.6907C39.6925 68.6907 31.3086 60.3068 31.3086 50.0001C31.3086 39.6933 39.6925 31.3094 49.9992 31.3094C60.306 31.3094 68.6899 39.6933 68.6899 50.0001C68.6899 60.3068 60.306 68.6907 49.9992 68.6907Z" fill="#E21C3D"/><path d="M49.999 31.3094V68.6907C60.3058 68.6907 68.6897 60.3068 68.6897 50.0001C68.6897 39.6933 60.3058 31.3094 49.999 31.3094Z" fill="#B51E23"/><path d="M44.3131 52.0651C45.4536 52.0651 46.3782 51.1405 46.3782 50C46.3782 48.8595 45.4536 47.9349 44.3131 47.9349C43.1726 47.9349 42.248 48.8595 42.248 50C42.248 51.1405 43.1726 52.0651 44.3131 52.0651Z" fill="white"/><path d="M44.3138 43.8142C40.8978 43.8142 38.1279 46.5841 38.1279 50.0001C38.1279 53.4161 40.8978 56.186 44.3138 56.186C47.7298 56.186 50.4997 53.4161 50.4997 50.0001C50.4997 46.5841 47.7298 43.8142 44.3138 43.8142ZM44.3138 54.1271C42.0355 54.1271 40.1868 52.2785 40.1868 50.0001C40.1868 47.7217 42.0355 45.8731 44.3138 45.8731C46.5922 45.8731 48.4409 47.7217 48.4409 50.0001C48.4409 52.2785 46.5922 54.1271 44.3138 54.1271Z" fill="white"/><path d="M49.3037 46.8994H58.7727L61.8672 49.9969L57.2239 54.6433L56.5098 54.1147L53.879 51.4715L55.1588 50.5132L57.026 51.9167L58.9458 49.9969L57.9133 48.9644H49.3037V46.8994Z" fill="white"/><defs><filter id="filter0_d_119_1094" x="0" y="0" width="100" height="100" filterUnits="userSpaceOnUse" color-interpolation-filters="sRGB"><feFlood flood-opacity="0" result="BackgroundImageFix"/><feColorMatrix in="SourceAlpha" type="matrix" values="0 0 0 0 0 0 0 0 0 0 0 0 0 0 0 0 0 0 127 0" result="hardAlpha"/><feOffset/><feGaussianBlur stdDeviation="3"/><feColorMatrix type="matrix" values="0 0 0 0 0 0 0 0 0 0 0 0 0 0 0 0 0 0 0.24 0"/><feBlend mode="normal" in2="BackgroundImageFix" result="effect1_dropShadow_119_1094"/><feBlend mode="normal" in="SourceGraphic" in2="effect1_dropShadow_119_1094" result="shape"/></filter></defs></svg>

<svg width="100" height="100" viewBox="0 0 100 100" fill="none" xmlns="http://www.w3.org/2000/svg"><g filter="url(#a)"><path d="M50 94c24.3 0 44-19.7 44-44S74.3 6 50 6 6 25.7 6 50s19.7 44 44 44Z" fill="#fff"/></g><path d="M50 89.601c21.87 0 39.6-17.73 39.6-39.6 0-21.872-17.73-39.602-39.6-39.602C28.127 10.4 10.397 28.13 10.397 50S28.128 89.601 50 89.601Z" fill="#E21C3D"/><path d="M50 85.64c19.684 0 35.641-15.956 35.641-35.64s-15.957-35.64-35.64-35.64c-19.685 0-35.642 15.956-35.642 35.64S30.316 85.64 50 85.64Z" fill="#fff"/><path d="M50 68.69c-10.307 0-18.691-8.383-18.691-18.69 0-10.307 8.384-18.69 18.69-18.69 10.307 0 18.69 8.383 18.69 18.69 0 10.307-8.383 18.69-18.69 18.69Z" fill="#E21C3D"/><path d="M49.999 31.31v37.38c10.307 0 18.69-8.383 18.69-18.69 0-10.307-8.383-18.69-18.69-18.69Z" fill="#B51E23"/><path d="M44.313 52.065a2.065 2.065 0 1 0 0-4.13 2.065 2.065 0 0 0 0 4.13Z" fill="#fff"/><path d="M44.314 43.814a6.186 6.186 0 1 0 0 12.373 6.186 6.186 0 0 0 0-12.373Zm0 10.313a4.128 4.128 0 0 1 0-8.254 4.128 4.128 0 0 1 0 8.254Z" fill="#fff"/><path d="M49.304 46.9h9.469l3.094 3.097-4.643 4.646-.714-.528-2.631-2.644 1.28-.958 1.867 1.404 1.92-1.92-1.033-1.033h-8.61V46.9Z" fill="#fff"/><defs><filter id="a" x="0" y="0" width="100" height="100" filterUnits="userSpaceOnUse" color-interpolation-filters="sRGB"><feFlood flood-opacity="0" result="BackgroundImageFix"/><feColorMatrix in="SourceAlpha" values="0 0 0 0 0 0 0 0 0 0 0 0 0 0 0 0 0 0 127 0" result="hardAlpha"/><feOffset/><feGaussianBlur stdDeviation="3"/><feColorMatrix values="0 0 0 0 0 0 0 0 0 0 0 0 0 0 0 0 0 0 0.24 0"/><feBlend in2="BackgroundImageFix" result="effect1_dropShadow_119_1094"/><feBlend in="SourceGraphic" in2="effect1_dropShadow_119_1094" result="shape"/></filter></defs></svg>
